X:1
T:1. Pour quoy
T:1. Pour quoy
T:(Ronde 1)
T:Tielman Susato
C:Tielman Susato
%%score 1 2 3 4
L:1/8
M:4/2
K:C
V:1 treble 
V:2 treble 
V:3 treble 
V:4 treble 
V:1
 D4 A4 A6 A2 | G4 A4 F4 D4 | G6 A2 G2 F2 E2 D2 | ^C2 B,2 C4 D8 :: D2 E2 F2 G2 A4 A4 | c4 B4 A8 | %6
 D2 E2 F2 G2 A4 A4 | c4 B4 A8 | F2 E2 F2 G2 A4 A4 | F2 E2 F2 G2 A4 A4 | G2 A2 _B2 A2 G2 F2 E2 D2 | %11
 ^C2 B,2 D2 C2 D8 | F2 E2 F2 G2 A4 A4 | F2 E2 F2 G2 A4 A4 | G2 A2 _B2 A2 G2 F2 E2 D2 | %15
 ^C2 B,2 D2 C2 D8 :| %16
V:2
 F,6 G,2 A,2 B,2 C2 D2 | E4 C4 D8 | D4 B,4 C4 _B,4 | A,8 A,8 :: D8 C4 F4 | E4 E4 C4 D4 | %6
 D4 D4 C4 F4 | E4 E4 ^C8 | D4 D4 E4 C4 | D4 D4 E4 D4 | D8 C4 _B,4 | A,8 A,8 | D4 D4 E4 C4 | %13
 D4 D4 E4 D4 | D8 C4 _B,4 | A,8 A,8 :| %16
V:3
 A,8 C4 C4 | B,4 A,4 _B,4 A,4 | G,6 F,2 G,2 A,2 G,2 F,2 | E,2 D,2 E,4 D,8 :: A,4 A,4 A,4 C4- | %5
 C2 B,A, G,4 A,4 F,4 | A,4 A,4 A,4 C4- | C2 B,A, ^G,4 A,8 | A,6 B,2 C4 A,4 | %9
 A,2 G,2 A,2 B,2 C4 F,4 | G,6 F,2 G,2 A,2 G,2 F,2 | E,2 D,2 E,4 D,8 | A,6 B,2 C4 A,4 | %13
 A,2 G,2 A,2 B,2 C4 F,4 | G,6 F,2 G,2 A,2 G,2 F,2 | E,2 D,2 E,4 D,8 :| %16
V:4
 D,4 D,4 A,,6 A,,2 | D,4 A,,4 D,8 | G,,4 G,,4 C,4 D,4 | A,,8 D,8 :: D,4 D,4 F,6 E,D, | %5
 C,2 D,2 E,4 A,,4 D,4 | D,4 D,4 F,6 E,D, | C,2 D,2 E,4 A,,8 | D,6 C,2 A,,4 A,,4 | %9
 D,6 C,2 A,,4 D,4 | G,,8 C,4 D,4 | A,,8 D,8 | D,6 C,2 A,,4 A,,4 | D,6 C,2 A,,4 D,4 | G,,8 C,4 D,4 | %15
 A,,8 D,8 :| %16

